X:3060
T:Brudmarsch från Tving efter bröderna Wallin
M:4/4
L:1/4
K:G
R:Marsch
O:Blekinge
Q:180
|: G3/2 G/2 B d | g2 B2 | c3/2 e/2 d c | B2 G B | d d e/2d/2 c | A2 F A | c c B A |1 B2 G D :|2 G2 G F |
E3/2 c/2 c E | c2 B A | G3/2 B/2 B D | B2 A G | F3/2 A/2 A B | c A F A | G3/2 A/2 B/2A/2B/2c/2 | d2 G F |
E3/2 c/2 c E | c2 B A | G3/2 B/2 B D | B2 A G | F3/2 A/2 A B | c A F A | G2 B2 | G2 z2 |

(:musicend:)
(:music:)
